src/lib/packages/icons/src/assets/filled/user-minus-bottom.svg

<svg xmlns="http://www.w3.org/2000/svg" width="24" height="24" fill="none"><path fill="currentColor" d="M14 19c0 .736.179 1.434.497 2.052.105.205-.026.448-.256.448H7c-2.29 0-3.5-1.2-3.5-3.48 0-2.55 1.44-5.52 5.5-5.52h4c2.002 0 3.369.724 4.235 1.76.135.162.042.401-.158.467A4.487 4.487 0 0 0 14 19Zm-2.991-8.5c2.206 0 4-1.794 4-4s-1.794-4-4-4-4 1.794-4 4 1.794 4 4 4ZM21 18.25h-4a.75.75 0 0 0 0 1.5h4a.75.75 0 0 0 0-1.5Z"/></svg>

<svg width="24" height="24" viewBox="0 0 24 24" fill="none" xmlns="http://www.w3.org/2000/svg">
<path d="M14 19C14 19.736 14.1789 20.434 14.4969 21.052C14.6019 21.257 14.471 21.5 14.241 21.5H11H7C4.71 21.5 3.5 20.3 3.5 18.02C3.5 15.47 4.94 12.5 9 12.5H11H13C15.002 12.5 16.369 13.224 17.235 14.26C17.37 14.422 17.277 14.6611 17.077 14.7271C15.284 15.3181 14 17.004 14 19ZM11.009 10.5C13.215 10.5 15.009 8.706 15.009 6.5C15.009 4.294 13.215 2.5 11.009 2.5C8.80303 2.5 7.00903 4.294 7.00903 6.5C7.00903 8.706 8.80303 10.5 11.009 10.5ZM21 18.25H17C16.586 18.25 16.25 18.586 16.25 19C16.25 19.414 16.586 19.75 17 19.75H21C21.414 19.75 21.75 19.414 21.75 19C21.75 18.586 21.414 18.25 21 18.25Z" fill="currentColor"/>
</svg>
